svg/transport/rear_windshield_defroster_line.svg

<?xml version="1.0" encoding="UTF-8"?>
<svg width="24px" height="24px" viewBox="0 0 24 24" version="1.1" xmlns="http://www.w3.org/2000/svg" xmlns:xlink="http://www.w3.org/1999/xlink">
    <title>rear_windshield_defroster_line</title>
    <g id="页面-1" stroke="none" stroke-width="1" fill="none" fill-rule="evenodd">
        <g id="Transport" transform="translate(-288.000000, -192.000000)" fill-rule="nonzero">
            <g id="rear_windshield_defroster_line" transform="translate(288.000000, 192.000000)">
                 <path d="M24,0 L24,24 L0,24 L0,0 L24,0 Z M12.5934901,23.257841 L12.5819402,23.2595131 L12.5108777,23.2950439 L12.4918791,23.2987469 L12.4918791,23.2987469 L12.4767152,23.2950439 L12.4056548,23.2595131 C12.3958229,23.2563662 12.3870493,23.2590235 12.3821421,23.2649074 L12.3780323,23.275831 L12.360941,23.7031097 L12.3658947,23.7234994 L12.3769048,23.7357139 L12.4804777,23.8096931 L12.4953491,23.8136134 L12.4953491,23.8136134 L12.5071152,23.8096931 L12.6106902,23.7357139 L12.6232938,23.7196733 L12.6232938,23.7196733 L12.6266527,23.7031097 L12.609561,23.275831 C12.6075724,23.2657013 12.6010112,23.2592993 12.5934901,23.257841 L12.5934901,23.257841 Z M12.8583906,23.1452862 L12.8445485,23.1473072 L12.6598443,23.2396597 L12.6498822,23.2499052 L12.6498822,23.2499052 L12.6471943,23.2611114 L12.6650943,23.6906389 L12.6699349,23.7034178 L12.6699349,23.7034178 L12.678386,23.7104931 L12.8793402,23.8032389 C12.8914285,23.8068999 12.9022333,23.8029875 12.9078286,23.7952264 L12.9118235,23.7811639 L12.8776777,23.1665331 C12.8752882,23.1545897 12.8674102,23.1470016 12.8583906,23.1452862 L12.8583906,23.1452862 Z M12.1430473,23.1473072 C12.1332178,23.1423925 12.1221763,23.1452606 12.1156365,23.1525954 L12.1099173,23.1665331 L12.0757714,23.7811639 C12.0751323,23.7926639 12.0828099,23.8018602 12.0926481,23.8045676 L12.108256,23.8032389 L12.3092106,23.7104931 L12.3186497,23.7024347 L12.3186497,23.7024347 L12.3225043,23.6906389 L12.340401,23.2611114 L12.337245,23.2485176 L12.337245,23.2485176 L12.3277531,23.2396597 L12.1430473,23.1473072 Z" id="MingCute" fill-rule="nonzero"></path>
                <path d="M10.6247,10.2191 C11.056,10.5641 11.1259,11.1934 10.7809,11.6247 L10.5478,11.9161 C9.89839056,12.7277556 9.9235196,13.8780941 10.583964,14.6590608 L10.7071,14.7929 C12.206,16.2918 12.3382,18.6781 11.014,20.3333 L10.7809,20.6247 C10.4359,21.056 9.80657,21.1259 9.37531,20.7809 C8.94404,20.4359 8.87412,19.8066 9.21913,19.3753 L9.45223,19.0839 C10.1016017,18.2722444 10.0764884,17.1219059 9.41602898,16.3409392 L9.29289,16.2071 C7.79398,14.7082 7.66182,12.3219 8.98604,10.6667 L9.21913,10.3753 C9.56414,9.94404 10.1934,9.87412 10.6247,10.2191 Z M14.6247,10.2191 C15.056,10.5641 15.1259,11.1934 14.7809,11.6247 L14.5478,11.9161 C13.8984,12.7277556 13.9235117,13.8780941 14.5839626,14.6590608 L14.7071,14.7929 C16.206,16.2918 16.3382,18.6781 15.014,20.3333 L14.7809,20.6247 C14.4359,21.056 13.8066,21.1259 13.3753,20.7809 C12.944,20.4359 12.8741,19.8066 13.2191,19.3753 L13.4522,19.0839 C14.1016,18.2722444 14.0764883,17.1219059 13.4160374,16.3409392 L13.2929,16.2071 C11.794,14.7082 11.6618,12.3219 12.986,10.6667 L13.2191,10.3753 C13.5641,9.94404 14.1934,9.87412 14.6247,10.2191 Z M19,4 C20.597725,4 21.903664,5.24892392 21.9949075,6.82372764 L22,7 L22,14 C22,15.597725 20.7511226,16.903664 19.1762773,16.9949075 L19,17 L18,17 C17.4477,17 17,16.5523 17,16 C17,15.48715 17.386027,15.0644908 17.8833761,15.0067275 L18,15 L19,15 C19.51285,15 19.9355092,14.613973 19.9932725,14.1166239 L20,14 L20,7 C20,6.48716857 19.613973,6.06449347 19.1166239,6.0067278 L19,6 L5,6 C4.48716857,6 4.06449347,6.38604429 4.0067278,6.88337975 L4,7 L4,14 C4,14.51285 4.38604429,14.9355092 4.88337975,14.9932725 L5,15 L6,15 C6.55228,15 7,15.4477 7,16 C7,16.51285 6.61395571,16.9355092 6.11662025,16.9932725 L6,17 L5,17 C3.40232321,17 2.09633941,15.7511226 2.00509271,14.1762773 L2,14 L2,7 C2,5.40232321 3.24892392,4.09633941 4.82372764,4.00509271 L5,4 L19,4 Z" id="形状" fill="#09244B"></path>
            </g>
        </g>
    </g>
</svg>

<svg xmlns="http://www.w3.org/2000/svg" width="24" height="24"><g fill="none" fill-rule="nonzero"><path d="M24 0v24H0V0h24ZM12.593 23.258l-.011.002-.071.035-.02.004-.014-.004-.071-.035c-.01-.004-.019-.001-.024.005l-.004.01-.017.428.005.02.01.013.104.074.015.004.012-.004.104-.074.012-.016.004-.017-.017-.427c-.002-.01-.009-.017-.017-.018Zm.265-.113-.013.002-.185.093-.01.01-.003.011.018.43.005.012.008.007.201.093c.012.004.023 0 .029-.008l.004-.014-.034-.614c-.003-.012-.01-.02-.02-.022Zm-.715.002a.023.023 0 0 0-.027.006l-.006.014-.034.614c0 .012.007.02.017.024l.015-.002.201-.093.01-.008.004-.011.017-.43-.003-.012-.01-.01-.184-.092Z"/><path fill="#09244B" d="M10.625 10.22a1 1 0 0 1 .156 1.405l-.233.291a2.16 2.16 0 0 0 .036 2.743l.123.134a4.16 4.16 0 0 1 .307 5.54l-.233.292a1 1 0 1 1-1.562-1.25l.233-.291a2.16 2.16 0 0 0-.036-2.743l-.123-.134a4.16 4.16 0 0 1-.307-5.54l.233-.292a1 1 0 0 1 1.406-.156Zm4 0a1 1 0 0 1 .156 1.405l-.233.291a2.16 2.16 0 0 0 .036 2.743l.123.134a4.16 4.16 0 0 1 .307 5.54l-.233.292a1 1 0 1 1-1.562-1.25l.233-.291a2.16 2.16 0 0 0-.036-2.743l-.123-.134a4.16 4.16 0 0 1-.307-5.54l.233-.292a1 1 0 0 1 1.406-.156ZM19 4a3 3 0 0 1 2.995 2.824L22 7v7a3 3 0 0 1-2.824 2.995L19 17h-1a1 1 0 0 1-.117-1.993L18 15h1a1 1 0 0 0 .993-.883L20 14V7a1 1 0 0 0-.883-.993L19 6H5a1 1 0 0 0-.993.883L4 7v7a1 1 0 0 0 .883.993L5 15h1a1 1 0 0 1 .117 1.993L6 17H5a3 3 0 0 1-2.995-2.824L2 14V7a3 3 0 0 1 2.824-2.995L5 4h14Z"/></g></svg>
